X: 12732
T: Father Kelly's
R: reel
M: 4/4
K: Gmajor
~d3 B cBAB|G2 .B/.B/G DGBG|AAAB cBAG|EA .A/.A/A ABcA|
~d3 B cBAB|GABG DGBG|AAAB cdeg|fdcA BGGB:|
dg{a}gf gedg|ea ~a2 {b}ageg|fd .d/.d/d bdad|gfge dcBc|
dg{a}gf gedg|ea ~a2 {b}ageg|(f/g/a) eg fdcA|GBAF DGGB|
dg{a}gf gedg|ea ~a2 {b}ageg|fd .d/.d/d bdad|gfge dcBc|
~d3 g {a}gedg|ea ~a2 {b}ageg|(f/g/a) eg fdcA|GBAF DG G2||

